assets/1. P-Z/Wine glass/Color/Wine.Glass-color.svg

<svg width="100%" height="100%" viewBox="0 0 32 32" fill="none" xmlns="http://www.w3.org/2000/svg">
<path d="M25.5995 10.12L22.3095 2.46C22.1895 2.18 21.9195 2 21.6195 2H10.5395C10.2395 2 9.95954 2.18 9.84954 2.46L6.55954 10.12C5.11954 13.48 6.54954 17.37 9.80954 19L14.7295 21.46C15.0695 21.63 15.2895 21.98 15.2895 22.36V28.72H11.7995C11.3995 28.72 11.0495 29.03 11.0395 29.44C11.0295 29.85 11.3595 30.18 11.7695 30.18H20.3495C20.7495 30.18 21.0995 29.87 21.1095 29.46C21.1195 29.05 20.7895 28.72 20.3795 28.72H16.8295V22.37C16.8295 21.99 17.0495 21.64 17.3895 21.47L22.3395 18.99C25.6095 17.37 27.0395 13.47 25.5995 10.12Z" fill="url(#paint0_linear_18_27321)"/>
<path d="M25.5995 10.12L22.3095 2.46C22.1895 2.18 21.9195 2 21.6195 2H10.5395C10.2395 2 9.95954 2.18 9.84954 2.46L6.55954 10.12C5.11954 13.48 6.54954 17.37 9.80954 19L14.7295 21.46C15.0695 21.63 15.2895 21.98 15.2895 22.36V28.72H11.7995C11.3995 28.72 11.0495 29.03 11.0395 29.44C11.0295 29.85 11.3595 30.18 11.7695 30.18H20.3495C20.7495 30.18 21.0995 29.87 21.1095 29.46C21.1195 29.05 20.7895 28.72 20.3795 28.72H16.8295V22.37C16.8295 21.99 17.0495 21.64 17.3895 21.47L22.3395 18.99C25.6095 17.37 27.0395 13.47 25.5995 10.12Z" fill="url(#paint1_linear_18_27321)"/>
<path d="M25.5995 10.12L22.3095 2.46C22.1895 2.18 21.9195 2 21.6195 2H10.5395C10.2395 2 9.95954 2.18 9.84954 2.46L6.55954 10.12C5.11954 13.48 6.54954 17.37 9.80954 19L14.7295 21.46C15.0695 21.63 15.2895 21.98 15.2895 22.36V28.72H11.7995C11.3995 28.72 11.0495 29.03 11.0395 29.44C11.0295 29.85 11.3595 30.18 11.7695 30.18H20.3495C20.7495 30.18 21.0995 29.87 21.1095 29.46C21.1195 29.05 20.7895 28.72 20.3795 28.72H16.8295V22.37C16.8295 21.99 17.0495 21.64 17.3895 21.47L22.3395 18.99C25.6095 17.37 27.0395 13.47 25.5995 10.12Z" fill="url(#paint2_radial_18_27321)"/>
<path d="M11.7995 28.72C11.3995 28.72 11.0495 29.03 11.0395 29.44C11.0295 29.85 11.3595 30.18 11.7695 30.18H20.3495C20.7495 30.18 21.0995 29.87 21.1095 29.46C21.1195 29.05 20.7895 28.72 20.3795 28.72C7.2796 28.72 24.1915 28.72 11.7995 28.72Z" fill="url(#paint3_linear_18_27321)"/>
<path d="M11.7995 28.72C11.3995 28.72 11.0495 29.03 11.0395 29.44C11.0295 29.85 11.3595 30.18 11.7695 30.18H20.3495C20.7495 30.18 21.0995 29.87 21.1095 29.46C21.1195 29.05 20.7895 28.72 20.3795 28.72C7.2796 28.72 24.1915 28.72 11.7995 28.72Z" fill="url(#paint4_radial_18_27321)"/>
<path d="M11.7995 28.72C11.3995 28.72 11.0495 29.03 11.0395 29.44C11.0295 29.85 11.3595 30.18 11.7695 30.18H20.3495C20.7495 30.18 21.0995 29.87 21.1095 29.46C21.1195 29.05 20.7895 28.72 20.3795 28.72C7.2796 28.72 24.1915 28.72 11.7995 28.72Z" fill="url(#paint5_radial_18_27321)"/>
<path d="M11.7995 28.72C11.3995 28.72 11.0495 29.03 11.0395 29.44C11.0295 29.85 11.3595 30.18 11.7695 30.18H20.3495C20.7495 30.18 21.0995 29.87 21.1095 29.46C21.1195 29.05 20.7895 28.72 20.3795 28.72C7.2796 28.72 24.1915 28.72 11.7995 28.72Z" fill="url(#paint6_radial_18_27321)"/>
<path d="M11.7995 28.72C11.3995 28.72 11.0495 29.03 11.0395 29.44C11.0295 29.85 11.3595 30.18 11.7695 30.18H20.3495C20.7495 30.18 21.0995 29.87 21.1095 29.46C21.1195 29.05 20.7895 28.72 20.3795 28.72C7.2796 28.72 24.1915 28.72 11.7995 28.72Z" fill="url(#paint7_radial_18_27321)"/>
<path d="M11.7995 28.72C11.3995 28.72 11.0495 29.03 11.0395 29.44C11.0295 29.85 11.3595 30.18 11.7695 30.18H20.3495C20.7495 30.18 21.0995 29.87 21.1095 29.46C21.1195 29.05 20.7895 28.72 20.3795 28.72C7.2796 28.72 24.1915 28.72 11.7995 28.72Z" fill="url(#paint8_radial_18_27321)"/>
<path d="M14.7295 21.46C15.0695 21.63 15.2895 21.98 15.2895 22.36V28.72C7.43836 28.72 27.2924 28.72 16.8295 28.72V22.37C16.8295 21.99 17.0495 21.64 17.3895 21.47L14.7295 21.46Z" fill="url(#paint9_linear_18_27321)"/>
<path d="M14.7295 21.46C15.0695 21.63 15.2895 21.98 15.2895 22.36V28.72C7.43836 28.72 27.2924 28.72 16.8295 28.72V22.37C16.8295 21.99 17.0495 21.64 17.3895 21.47L14.7295 21.46Z" fill="url(#paint10_radial_18_27321)"/>
<path d="M23.2095 10.0601H8.94954C8.51954 10.0601 8.11954 10.3201 7.94954 10.7201C6.82954 13.3401 7.93954 16.3801 10.4895 17.6601L14.9495 19.8901C15.6595 20.2401 16.4895 20.2401 17.1995 19.8901L21.6695 17.6601C24.2195 16.3801 25.3395 13.3401 24.2095 10.7201C24.0395 10.3101 23.6495 10.0601 23.2095 10.0601Z" fill="#E21B95"/>
<path d="M23.2095 10.0601H8.94954C8.51954 10.0601 8.11954 10.3201 7.94954 10.7201C6.82954 13.3401 7.93954 16.3801 10.4895 17.6601L14.9495 19.8901C15.6595 20.2401 16.4895 20.2401 17.1995 19.8901L21.6695 17.6601C24.2195 16.3801 25.3395 13.3401 24.2095 10.7201C24.0395 10.3101 23.6495 10.0601 23.2095 10.0601Z" fill="url(#paint11_radial_18_27321)"/>
<path d="M23.2095 10.0601H8.94954C8.51954 10.0601 8.11954 10.3201 7.94954 10.7201C6.82954 13.3401 7.93954 16.3801 10.4895 17.6601L14.9495 19.8901C15.6595 20.2401 16.4895 20.2401 17.1995 19.8901L21.6695 17.6601C24.2195 16.3801 25.3395 13.3401 24.2095 10.7201C24.0395 10.3101 23.6495 10.0601 23.2095 10.0601Z" fill="url(#paint12_radial_18_27321)"/>
<path d="M23.2095 10.0601H8.94954C8.51954 10.0601 8.11954 10.3201 7.94954 10.7201C6.82954 13.3401 7.93954 16.3801 10.4895 17.6601L14.9495 19.8901C15.6595 20.2401 16.4895 20.2401 17.1995 19.8901L21.6695 17.6601C24.2195 16.3801 25.3395 13.3401 24.2095 10.7201C24.0395 10.3101 23.6495 10.0601 23.2095 10.0601Z" fill="url(#paint13_linear_18_27321)"/>
<path d="M23.2095 10.0601H8.94954C8.51954 10.0601 8.11954 10.3201 7.94954 10.7201C6.82954 13.3401 7.93954 16.3801 10.4895 17.6601L14.9495 19.8901C15.6595 20.2401 16.4895 20.2401 17.1995 19.8901L21.6695 17.6601C24.2195 16.3801 25.3395 13.3401 24.2095 10.7201C24.0395 10.3101 23.6495 10.0601 23.2095 10.0601Z" fill="url(#paint14_radial_18_27321)"/>
<path d="M23.2095 10.0601H8.94954C8.51954 10.0601 8.11954 10.3201 7.94954 10.7201C6.82954 13.3401 7.93954 16.3801 10.4895 17.6601L14.9495 19.8901C15.6595 20.2401 16.4895 20.2401 17.1995 19.8901L21.6695 17.6601C24.2195 16.3801 25.3395 13.3401 24.2095 10.7201C24.0395 10.3101 23.6495 10.0601 23.2095 10.0601Z" fill="url(#paint15_radial_18_27321)"/>
<path d="M23.2095 10.0601H8.94954C8.51954 10.0601 8.11954 10.3201 7.94954 10.7201C6.82954 13.3401 7.93954 16.3801 10.4895 17.6601L14.9495 19.8901C15.6595 20.2401 16.4895 20.2401 17.1995 19.8901L21.6695 17.6601C24.2195 16.3801 25.3395 13.3401 24.2095 10.7201C24.0395 10.3101 23.6495 10.0601 23.2095 10.0601Z" fill="url(#paint16_linear_18_27321)"/>
<path d="M22.3695 12.93C21.9795 12.93 21.6095 12.7 21.4495 12.32L18.1595 4.65995C17.9395 4.14995 18.1795 3.55995 18.6795 3.34995C19.1895 3.12995 19.7695 3.36995 19.9895 3.86995L23.2795 11.53C23.4995 12.04 23.2595 12.63 22.7595 12.84C22.6295 12.9 22.4995 12.93 22.3695 12.93Z" fill="url(#paint17_linear_18_27321)"/>
<defs>
<linearGradient id="paint0_linear_18_27321" x1="6" y1="11.6875" x2="26.1589" y2="11.6875" gradientUnits="userSpaceOnUse">
<stop stop-color="#C7E7FF"/>
<stop offset="0.474356" stop-color="#C2E9FF"/>
<stop offset="0.682081" stop-color="#D3F6FF"/>
</linearGradient>
<linearGradient id="paint1_linear_18_27321" x1="16.0794" y1="2" x2="16.0794" y2="2.6875" gradientUnits="userSpaceOnUse">
<stop stop-color="#BADEF8"/>
<stop offset="1" stop-color="#BADEF8" stop-opacity="0"/>
</linearGradient>
<radialGradient id="paint2_radial_18_27321" cx="0" cy="0" r="1" gradientUnits="userSpaceOnUse" gradientTransform="translate(16.0794 13.5625) rotate(90) scale(16.6175 11.1615)">
<stop offset="0.731671" stop-color="#BFD7EF" stop-opacity="0"/>
<stop offset="0.866059" stop-color="#C0D7F0"/>
</radialGradient>
<linearGradient id="paint3_linear_18_27321" x1="15.9375" y1="28.8906" x2="16.0745" y2="31.2656" gradientUnits="userSpaceOnUse">
<stop stop-color="#C7E7FF"/>
<stop offset="0.481106" stop-color="#D3F6FF"/>
</linearGradient>
<radialGradient id="paint4_radial_18_27321" cx="0" cy="0" r="1" gradientUnits="userSpaceOnUse" gradientTransform="translate(16.25 29.45) rotate(90) scale(2.31567 5.625)">
<stop offset="0.82094" stop-color="#BEDBF3" stop-opacity="0"/>
<stop offset="1" stop-color="#BBDAF5"/>
</radialGradient>
<radialGradient id="paint5_radial_18_27321" cx="0" cy="0" r="1" gradientUnits="userSpaceOnUse" gradientTransform="translate(11.0393 29.45) rotate(90) scale(0.682862 1.13306)">
<stop stop-color="#BDDAF3"/>
<stop offset="1" stop-color="#BADAF5" stop-opacity="0"/>
</radialGradient>
<radialGradient id="paint6_radial_18_27321" cx="0" cy="0" r="1" gradientUnits="userSpaceOnUse" gradientTransform="translate(21.1875 29.45) rotate(90) scale(0.581299 1.1875)">
<stop stop-color="#C3E2FB"/>
<stop offset="1" stop-color="#BADAF5" stop-opacity="0"/>
</radialGradient>
<radialGradient id="paint7_radial_18_27321" cx="0" cy="0" r="1" gradientUnits="userSpaceOnUse" gradientTransform="translate(18.5234 29.2188) rotate(88.6361) scale(0.328218 3.28217)">
<stop stop-color="#D3FBFF"/>
<stop offset="1" stop-color="#D4FCFF" stop-opacity="0"/>
</radialGradient>
<radialGradient id="paint8_radial_18_27321" cx="0" cy="0" r="1" gradientUnits="userSpaceOnUse" gradientTransform="translate(13.5937 29.7188) rotate(87.614) scale(0.375325 3.66641)">
<stop stop-color="#D3FBFF"/>
<stop offset="1" stop-color="#D4FCFF" stop-opacity="0"/>
</radialGradient>
<linearGradient id="paint9_linear_18_27321" x1="15.25" y1="25.5625" x2="16.9687" y2="25.5625" gradientUnits="userSpaceOnUse">
<stop stop-color="#BBDBF5"/>
<stop offset="0.318182" stop-color="#C7F1FF"/>
<stop offset="0.736364" stop-color="#CFF8FF"/>
<stop offset="1" stop-color="#C2E6FE"/>
</linearGradient>
<radialGradient id="paint10_radial_18_27321" cx="0" cy="0" r="1" gradientUnits="userSpaceOnUse" gradientTransform="translate(16.4219 21.46) rotate(90) scale(1.49316 5.21875)">
<stop stop-color="#BDE9FF"/>
<stop offset="1" stop-color="#BDE9FF" stop-opacity="0"/>
</radialGradient>
<radialGradient id="paint11_radial_18_27321" cx="0" cy="0" r="1" gradientUnits="userSpaceOnUse" gradientTransform="translate(21.3125 11.4375) rotate(90) scale(5.625 9.55005)">
<stop offset="0.122222" stop-color="#FF73CB"/>
<stop offset="0.555556" stop-color="#FF38B5"/>
<stop offset="1" stop-color="#E6229D" stop-opacity="0"/>
</radialGradient>
<radialGradient id="paint12_radial_18_27321" cx="0" cy="0" r="1" gradientUnits="userSpaceOnUse" gradientTransform="translate(6.8125 11.6875) rotate(90) scale(3.75 6.3667)">
<stop stop-color="#FF73CB"/>
<stop offset="1" stop-color="#FF73CC" stop-opacity="0"/>
</radialGradient>
<linearGradient id="paint13_linear_18_27321" x1="16.5" y1="20.5625" x2="16.5" y2="15.1063" gradientUnits="userSpaceOnUse">
<stop offset="0.0916393" stop-color="#9162AC"/>
<stop offset="0.366557" stop-color="#A969BD"/>
<stop offset="0.664385" stop-color="#CC4AB7"/>
<stop offset="1" stop-color="#C940B0" stop-opacity="0"/>
</linearGradient>
<radialGradient id="paint14_radial_18_27321" cx="0" cy="0" r="1" gradientUnits="userSpaceOnUse" gradientTransform="translate(14.875 16.125) rotate(75.2033) scale(3.42612 4.22948)">
<stop stop-color="#C24AB6"/>
<stop offset="1" stop-color="#C348B4" stop-opacity="0"/>
</radialGradient>
<radialGradient id="paint15_radial_18_27321" cx="0" cy="0" r="1" gradientUnits="userSpaceOnUse" gradientTransform="translate(7.51422 16.1875) rotate(90) scale(3.5 5.70172)">
<stop stop-color="#B23E95"/>
<stop offset="1" stop-color="#B33C93" stop-opacity="0"/>
</radialGradient>
<linearGradient id="paint16_linear_18_27321" x1="16.0817" y1="10.0601" x2="16.0817" y2="10.625" gradientUnits="userSpaceOnUse">
<stop stop-color="#DA318B"/>
<stop offset="1" stop-color="#DA318B" stop-opacity="0"/>
</linearGradient>
<linearGradient id="paint17_linear_18_27321" x1="18.9246" y1="4.12255" x2="22.8125" y2="13.375" gradientUnits="userSpaceOnUse">
<stop stop-color="white"/>
<stop offset="0.982683" stop-color="white" stop-opacity="0"/>
</linearGradient>
</defs>
</svg>

<svg width="100%" height="100%" viewBox="0 0 32 32" xmlns="http://www.w3.org/2000/svg"><path fill="url(#a)" d="m25.6 10.12-3.29-7.66a.75.75 0 0 0-.69-.46H10.54c-.3 0-.58.18-.69.46l-3.29 7.66A6.89 6.89 0 0 0 9.81 19l4.92 2.46c.34.17.56.52.56.9v6.36H11.8c-.4 0-.75.31-.76.72s.32.74.73.74h8.58c.4 0 .75-.31.76-.72a.724.724 0 0 0-.73-.74h-3.55v-6.35c0-.38.22-.73.56-.9l4.95-2.48a6.873 6.873 0 0 0 3.26-8.87"/><path fill="url(#b)" d="m25.6 10.12-3.29-7.66a.75.75 0 0 0-.69-.46H10.54c-.3 0-.58.18-.69.46l-3.29 7.66A6.89 6.89 0 0 0 9.81 19l4.92 2.46c.34.17.56.52.56.9v6.36H11.8c-.4 0-.75.31-.76.72s.32.74.73.74h8.58c.4 0 .75-.31.76-.72a.724.724 0 0 0-.73-.74h-3.55v-6.35c0-.38.22-.73.56-.9l4.95-2.48a6.873 6.873 0 0 0 3.26-8.87"/><path fill="url(#c)" d="m25.6 10.12-3.29-7.66a.75.75 0 0 0-.69-.46H10.54c-.3 0-.58.18-.69.46l-3.29 7.66A6.89 6.89 0 0 0 9.81 19l4.92 2.46c.34.17.56.52.56.9v6.36H11.8c-.4 0-.75.31-.76.72s.32.74.73.74h8.58c.4 0 .75-.31.76-.72a.724.724 0 0 0-.73-.74h-3.55v-6.35c0-.38.22-.73.56-.9l4.95-2.48a6.873 6.873 0 0 0 3.26-8.87"/><path fill="url(#d)" d="M11.8 28.72c-.4 0-.75.31-.76.72s.32.74.73.74h8.58c.4 0 .75-.31.76-.72a.724.724 0 0 0-.73-.74z"/><path fill="url(#e)" d="M11.8 28.72c-.4 0-.75.31-.76.72s.32.74.73.74h8.58c.4 0 .75-.31.76-.72a.724.724 0 0 0-.73-.74z"/><path fill="url(#f)" d="M11.8 28.72c-.4 0-.75.31-.76.72s.32.74.73.74h8.58c.4 0 .75-.31.76-.72a.724.724 0 0 0-.73-.74z"/><path fill="url(#g)" d="M11.8 28.72c-.4 0-.75.31-.76.72s.32.74.73.74h8.58c.4 0 .75-.31.76-.72a.724.724 0 0 0-.73-.74z"/><path fill="url(#h)" d="M11.8 28.72c-.4 0-.75.31-.76.72s.32.74.73.74h8.58c.4 0 .75-.31.76-.72a.724.724 0 0 0-.73-.74z"/><path fill="url(#i)" d="M11.8 28.72c-.4 0-.75.31-.76.72s.32.74.73.74h8.58c.4 0 .75-.31.76-.72a.724.724 0 0 0-.73-.74z"/><path fill="url(#j)" d="M14.73 21.46c.34.17.56.52.56.9v6.36h1.54v-6.35c0-.38.22-.73.56-.9z"/><path fill="url(#k)" d="M14.73 21.46c.34.17.56.52.56.9v6.36h1.54v-6.35c0-.38.22-.73.56-.9z"/><path fill="#E21B95" d="M23.21 10.06H8.95c-.43 0-.83.26-1 .66a5.39 5.39 0 0 0 2.54 6.94l4.46 2.23c.71.35 1.54.35 2.25 0l4.47-2.23c2.55-1.28 3.67-4.32 2.54-6.94-.17-.41-.56-.66-1-.66"/><path fill="url(#l)" d="M23.21 10.06H8.95c-.43 0-.83.26-1 .66a5.39 5.39 0 0 0 2.54 6.94l4.46 2.23c.71.35 1.54.35 2.25 0l4.47-2.23c2.55-1.28 3.67-4.32 2.54-6.94-.17-.41-.56-.66-1-.66"/><path fill="url(#m)" d="M23.21 10.06H8.95c-.43 0-.83.26-1 .66a5.39 5.39 0 0 0 2.54 6.94l4.46 2.23c.71.35 1.54.35 2.25 0l4.47-2.23c2.55-1.28 3.67-4.32 2.54-6.94-.17-.41-.56-.66-1-.66"/><path fill="url(#n)" d="M23.21 10.06H8.95c-.43 0-.83.26-1 .66a5.39 5.39 0 0 0 2.54 6.94l4.46 2.23c.71.35 1.54.35 2.25 0l4.47-2.23c2.55-1.28 3.67-4.32 2.54-6.94-.17-.41-.56-.66-1-.66"/><path fill="url(#o)" d="M23.21 10.06H8.95c-.43 0-.83.26-1 .66a5.39 5.39 0 0 0 2.54 6.94l4.46 2.23c.71.35 1.54.35 2.25 0l4.47-2.23c2.55-1.28 3.67-4.32 2.54-6.94-.17-.41-.56-.66-1-.66"/><path fill="url(#p)" d="M23.21 10.06H8.95c-.43 0-.83.26-1 .66a5.39 5.39 0 0 0 2.54 6.94l4.46 2.23c.71.35 1.54.35 2.25 0l4.47-2.23c2.55-1.28 3.67-4.32 2.54-6.94-.17-.41-.56-.66-1-.66"/><path fill="url(#q)" d="M23.21 10.06H8.95c-.43 0-.83.26-1 .66a5.39 5.39 0 0 0 2.54 6.94l4.46 2.23c.71.35 1.54.35 2.25 0l4.47-2.23c2.55-1.28 3.67-4.32 2.54-6.94-.17-.41-.56-.66-1-.66"/><path fill="url(#r)" d="M22.37 12.93c-.39 0-.76-.23-.92-.61l-3.29-7.66c-.22-.51.02-1.1.52-1.31a1 1 0 0 1 1.31.52l3.29 7.66c.22.51-.02 1.1-.52 1.31q-.195.09-.39.09"/><defs><radialGradient id="c" cx="0" cy="0" r="1" gradientTransform="matrix(0 16.6175 -11.1615 0 16.08 13.563)" gradientUnits="userSpaceOnUse"><stop offset=".732" stop-color="#BFD7EF" stop-opacity="0"/><stop offset=".866" stop-color="#C0D7F0"/></radialGradient><radialGradient id="e" cx="0" cy="0" r="1" gradientTransform="matrix(0 2.31567 -5.625 0 16.25 29.45)" gradientUnits="userSpaceOnUse"><stop offset=".821" stop-color="#BEDBF3" stop-opacity="0"/><stop offset="1" stop-color="#BBDAF5"/></radialGradient><radialGradient id="f" cx="0" cy="0" r="1" gradientTransform="matrix(0 .68286 -1.13306 0 11.04 29.45)" gradientUnits="userSpaceOnUse"><stop stop-color="#BDDAF3"/><stop offset="1" stop-color="#BADAF5" stop-opacity="0"/></radialGradient><radialGradient id="g" cx="0" cy="0" r="1" gradientTransform="matrix(0 .5813 -1.1875 0 21.188 29.45)" gradientUnits="userSpaceOnUse"><stop stop-color="#C3E2FB"/><stop offset="1" stop-color="#BADAF5" stop-opacity="0"/></radialGradient><radialGradient id="h" cx="0" cy="0" r="1" gradientTransform="matrix(.00781 .32813 -3.28124 .07812 18.523 29.219)" gradientUnits="userSpaceOnUse"><stop stop-color="#D3FBFF"/><stop offset="1" stop-color="#D4FCFF" stop-opacity="0"/></radialGradient><radialGradient id="i" cx="0" cy="0" r="1" gradientTransform="matrix(.01563 .375 -3.66323 .15264 13.594 29.719)" gradientUnits="userSpaceOnUse"><stop stop-color="#D3FBFF"/><stop offset="1" stop-color="#D4FCFF" stop-opacity="0"/></radialGradient><radialGradient id="k" cx="0" cy="0" r="1" gradientTransform="matrix(0 1.49316 -5.21875 0 16.422 21.46)" gradientUnits="userSpaceOnUse"><stop stop-color="#BDE9FF"/><stop offset="1" stop-color="#BDE9FF" stop-opacity="0"/></radialGradient><radialGradient id="l" cx="0" cy="0" r="1" gradientTransform="matrix(0 5.625 -9.55005 0 21.313 11.438)" gradientUnits="userSpaceOnUse"><stop offset=".122" stop-color="#FF73CB"/><stop offset=".556" stop-color="#FF38B5"/><stop offset="1" stop-color="#E6229D" stop-opacity="0"/></radialGradient><radialGradient id="m" cx="0" cy="0" r="1" gradientTransform="matrix(0 3.75 -6.3667 0 6.813 11.688)" gradientUnits="userSpaceOnUse"><stop stop-color="#FF73CB"/><stop offset="1" stop-color="#FF73CC" stop-opacity="0"/></radialGradient><radialGradient id="o" cx="0" cy="0" r="1" gradientTransform="rotate(75.203 -3.031 17.72)scale(3.42612 4.22948)" gradientUnits="userSpaceOnUse"><stop stop-color="#C24AB6"/><stop offset="1" stop-color="#C348B4" stop-opacity="0"/></radialGradient><radialGradient id="p" cx="0" cy="0" r="1" gradientTransform="matrix(0 3.5 -5.70172 0 7.514 16.188)" gradientUnits="userSpaceOnUse"><stop stop-color="#B23E95"/><stop offset="1" stop-color="#B33C93" stop-opacity="0"/></radialGradient><linearGradient id="a" x1="6" x2="26.159" y1="11.688" y2="11.688" gradientUnits="userSpaceOnUse"><stop stop-color="#C7E7FF"/><stop offset=".474" stop-color="#C2E9FF"/><stop offset=".682" stop-color="#D3F6FF"/></linearGradient><linearGradient id="b" x1="16.079" x2="16.079" y1="2" y2="2.688" gradientUnits="userSpaceOnUse"><stop stop-color="#BADEF8"/><stop offset="1" stop-color="#BADEF8" stop-opacity="0"/></linearGradient><linearGradient id="d" x1="15.938" x2="16.075" y1="28.891" y2="31.266" gradientUnits="userSpaceOnUse"><stop stop-color="#C7E7FF"/><stop offset=".481" stop-color="#D3F6FF"/></linearGradient><linearGradient id="j" x1="15.25" x2="16.969" y1="25.563" y2="25.563" gradientUnits="userSpaceOnUse"><stop stop-color="#BBDBF5"/><stop offset=".318" stop-color="#C7F1FF"/><stop offset=".736" stop-color="#CFF8FF"/><stop offset="1" stop-color="#C2E6FE"/></linearGradient><linearGradient id="n" x1="16.5" x2="16.5" y1="20.563" y2="15.106" gradientUnits="userSpaceOnUse"><stop offset=".092" stop-color="#9162AC"/><stop offset=".367" stop-color="#A969BD"/><stop offset=".664" stop-color="#CC4AB7"/><stop offset="1" stop-color="#C940B0" stop-opacity="0"/></linearGradient><linearGradient id="q" x1="16.082" x2="16.082" y1="10.06" y2="10.625" gradientUnits="userSpaceOnUse"><stop stop-color="#DA318B"/><stop offset="1" stop-color="#DA318B" stop-opacity="0"/></linearGradient><linearGradient id="r" x1="18.925" x2="22.813" y1="4.123" y2="13.375" gradientUnits="userSpaceOnUse"><stop stop-color="#fff"/><stop offset=".983" stop-color="#fff" stop-opacity="0"/></linearGradient></defs></svg>
